flaticon/productivity-and-development/flag.svg

<svg xmlns="http://www.w3.org/2000/svg" width="32" height="32" viewBox="0 0 24 24">
    <path d="M 19.851562 0.867188 C 19.851562 0.867188 18.433594 0.320312 17.015625 0.320312 C 14.179688 0.320312 12.035156 2.039062 9.957031 3.703125 C 7.929688 5.328125 6.011719 6.863281 3.53125 6.863281 C 2.859375 6.863281 2.183594 6.753906 1.472656 6.523438 L 0.945312 5.121094 L 0 5.476562 L 6.84375 23.679688 L 7.785156 23.324219 L 5.59375 17.492188 C 6.144531 17.613281 6.6875 17.675781 7.214844 17.675781 C 7.21875 17.675781 7.21875 17.675781 7.21875 17.675781 C 10.050781 17.675781 12.199219 15.957031 14.273438 14.292969 C 16.304688 12.667969 18.222656 11.132812 20.703125 11.132812 C 21.445312 11.132812 22.191406 11.269531 22.984375 11.546875 L 24 11.902344 Z M 20.703125 10.125 C 17.867188 10.125 15.71875 11.84375 13.644531 13.507812 C 11.613281 15.132812 9.699219 16.667969 7.21875 16.667969 L 7.214844 16.667969 C 6.542969 16.667969 5.867188 16.558594 5.15625 16.332031 L 1.90625 7.6875 C 2.457031 7.808594 3 7.871094 3.53125 7.871094 C 6.367188 7.871094 8.511719 6.152344 10.589844 4.488281 C 12.617188 2.863281 14.535156 1.328125 17.015625 1.328125 C 17.6875 1.328125 18.363281 1.4375 19.074219 1.667969 L 22.324219 10.3125 C 21.773438 10.1875 21.230469 10.125 20.703125 10.125 Z M 20.703125 10.125"/>
</svg>

<svg xmlns="http://www.w3.org/2000/svg" width="32" height="32" viewBox="0 0 24 24">
    <path d="M19.852.867S18.434.32 17.016.32c-2.836 0-4.98 1.72-7.059 3.383-2.027 1.625-3.945 3.16-6.426 3.16-.672 0-1.347-.11-2.058-.34L.945 5.121 0 5.477 6.844 23.68l.941-.356-2.191-5.832c.55.121 1.093.184 1.62.184h.005c2.832 0 4.98-1.719 7.054-3.383 2.032-1.625 3.95-3.16 6.43-3.16.742 0 1.488.137 2.281.414l1.016.355zm.851 9.258c-2.836 0-4.984 1.719-7.058 3.383-2.032 1.625-3.946 3.16-6.426 3.16h-.004a6.71 6.71 0 0 1-2.059-.336l-3.25-8.645c.551.122 1.094.184 1.625.184 2.836 0 4.98-1.719 7.059-3.383 2.027-1.625 3.945-3.16 6.426-3.16.672 0 1.347.11 2.058.34l3.25 8.645a7.328 7.328 0 0 0-1.62-.188zm0 0"/>
</svg>
